symbols/web/sentiment_neutral/materialsymbolsrounded/sentiment_neutral_wght100grad200fill1_48px.svg

<svg xmlns="http://www.w3.org/2000/svg" height="48" width="48"><path d="M30.8 21q.85 0 1.5-.6t.65-1.55q0-.9-.625-1.525Q31.7 16.7 30.8 16.7q-.9 0-1.525.6-.625.6-.625 1.55 0 .9.6 1.525.6.625 1.55.625Zm-13.6 0q.9 0 1.525-.6.625-.6.625-1.55 0-.9-.6-1.525-.6-.625-1.55-.625-.85 0-1.5.6t-.65 1.55q0 .9.625 1.525Q16.3 21 17.2 21Zm1.8 9.45h10.05q.35 0 .575-.225.225-.225.225-.575t-.225-.575q-.225-.225-.575-.225h-10.1q-.35 0-.575.2-.225.2-.225.6 0 .35.25.575.25.225.6.225Zm5 11.75q-3.8 0-7.1-1.45t-5.75-3.9Q8.7 34.4 7.25 31.1 5.8 27.8 5.8 24t1.45-7.1q1.45-3.3 3.925-5.775 2.475-2.475 5.75-3.9Q20.2 5.8 23.95 5.8q3.8 0 7.125 1.425t5.8 3.9q2.475 2.475 3.9 5.8Q42.2 20.25 42.2 24q0 3.8-1.425 7.075-1.425 3.275-3.9 5.75-2.475 2.475-5.8 3.925Q27.75 42.2 24 42.2Z"/></svg>

<svg xmlns="http://www.w3.org/2000/svg" height="48" width="48"><path d="M30.8 21Q31.65 21 32.3 20.4Q32.95 19.8 32.95 18.85Q32.95 17.95 32.325 17.325Q31.7 16.7 30.8 16.7Q29.9 16.7 29.275 17.3Q28.65 17.9 28.65 18.85Q28.65 19.75 29.25 20.375Q29.85 21 30.8 21ZM17.2 21Q18.1 21 18.725 20.4Q19.35 19.8 19.35 18.85Q19.35 17.95 18.75 17.325Q18.15 16.7 17.2 16.7Q16.35 16.7 15.7 17.3Q15.05 17.9 15.05 18.85Q15.05 19.75 15.675 20.375Q16.3 21 17.2 21ZM19 30.45H29.05Q29.4 30.45 29.625 30.225Q29.85 30 29.85 29.65Q29.85 29.3 29.625 29.075Q29.4 28.85 29.05 28.85H18.95Q18.6 28.85 18.375 29.05Q18.15 29.25 18.15 29.65Q18.15 30 18.4 30.225Q18.65 30.45 19 30.45ZM24 42.2Q20.2 42.2 16.9 40.75Q13.6 39.3 11.15 36.85Q8.7 34.4 7.25 31.1Q5.8 27.8 5.8 24Q5.8 20.2 7.25 16.9Q8.7 13.6 11.175 11.125Q13.65 8.65 16.925 7.225Q20.2 5.8 23.95 5.8Q27.75 5.8 31.075 7.225Q34.4 8.65 36.875 11.125Q39.35 13.6 40.775 16.925Q42.2 20.25 42.2 24Q42.2 27.8 40.775 31.075Q39.35 34.35 36.875 36.825Q34.4 39.3 31.075 40.75Q27.75 42.2 24 42.2Z"/></svg>
